build/svg/cmd/sc_inserthyperlink.svg

<?xml version="1.0" encoding="UTF-8" standalone="no"?>
<svg
   xmlns:dc="http://purl.org/dc/elements/1.1/"
   xmlns:cc="http://creativecommons.org/ns#"
   xmlns:rdf="http://www.w3.org/1999/02/22-rdf-syntax-ns#"
   xmlns:svg="http://www.w3.org/2000/svg"
   xmlns="http://www.w3.org/2000/svg"
   xmlns:sodipodi="http://sodipodi.sourceforge.net/DTD/sodipodi-0.dtd"
   xmlns:inkscape="http://www.inkscape.org/namespaces/inkscape"
   viewBox="0 0 16 16"
   version="1.1"
   id="svg4"
   sodipodi:docname="sc_inserthyperlink.svg"
   inkscape:version="0.92.5 (2060ec1f9f, 2020-04-08)"
   inkscape:export-filename="/home/jupiter007/Libreoffice yaru theme fullcolor/build/cmd/sc_inserthyperlink.png"
   inkscape:export-xdpi="95"
   inkscape:export-ydpi="95"><metadata
   id="metadata10">
  <rdf:RDF>
    <cc:Work
       rdf:about="">
      <dc:format>image/svg+xml</dc:format>
      <dc:type
         rdf:resource="http://purl.org/dc/dcmitype/StillImage" />
    </cc:Work>
  </rdf:RDF>
</metadata>
<defs
   id="defs8" />
<sodipodi:namedview
   pagecolor="#ffffff"
   bordercolor="#666666"
   borderopacity="1"
   objecttolerance="10"
   gridtolerance="10"
   guidetolerance="10"
   inkscape:pageopacity="0"
   inkscape:pageshadow="2"
   inkscape:window-width="1920"
   inkscape:window-height="1011"
   id="namedview6"
   showgrid="true"
   inkscape:zoom="22.627417"
   inkscape:cx="3.9575422"
   inkscape:cy="8.1180563"
   inkscape:window-x="0"
   inkscape:window-y="32"
   inkscape:window-maximized="1"
   inkscape:current-layer="svg4">
  <inkscape:grid
     type="xygrid"
     id="grid829" />
</sodipodi:namedview>


/&gt;<path
   inkscape:connector-curvature="0"
   id="path851"
   d="m 11.439069,2.0654571 c -0.640577,-4e-7 -1.281066,0.2417963 -1.7675789,0.7285149 L 6.574262,5.892506 c -0.9730248,0.9734353 -0.9732301,2.5619361 1e-7,3.5351561 0.1211799,0.12119 0.2526947,0.2254273 0.3906249,0.316407 l 0.734375,-0.734375 c -0.14935,-0.0724 -0.292578,-0.163663 -0.417968,-0.289063 -0.59372,-0.59372 -0.59372,-1.527364 0,-2.1210941 L 10.37852,3.5029556 c 0.59372,-0.5937193 1.527375,-0.5937192 2.121095,-2e-7 0.59372,0.5937201 0.59372,1.5273735 0,2.1210935 l -1.312217,1.311572 c 0.13649,0.39092 -0.05709,1.066176 -0.06235,1.4764161 L 13.206664,6.3310937 C 14.179894,5.3578736 14.179893,3.767215 13.206663,2.7939852 12.72005,2.3073705 12.079659,2.0654695 11.439082,2.0654705 Z M 9.0137151,6.281178 8.27934,7.015553 c 0.1493302,0.0724 0.2925788,0.1656263 0.4179687,0.2910163 0.5937204,0.59372 0.5937204,1.527373 10e-8,2.121093 L 5.6211045,12.501916 c -0.5937199,0.59373 -1.527374,0.59372 -2.121094,0 -0.5937191,-0.59372 -0.593719,-1.527374 -1e-7,-2.121094 L 5.0586376,8.8221952 C 4.922147,8.4312741 4.8482989,8.0234491 4.8535589,7.6132091 l -2.06058,2.0605801 c -0.97322,0.9732208 -0.9732298,2.5619258 0,3.5351558 0.9732299,0.97323 2.561927,0.97323 3.535157,0 l 3.0762172,-3.074237 c 0.9732199,-0.9732304 0.9732199,-2.5619375 0,-3.5351576 -0.12119,-0.12119 -0.252694,-0.227379 -0.390625,-0.3183589 z"
   style="color:#000000;font-style:normal;font-variant:normal;font-weight:normal;font-stretch:normal;font-size:medium;line-height:normal;font-family:sans-serif;text-indent:0;text-align:start;text-decoration:none;text-decoration-line:none;text-decoration-style:solid;text-decoration-color:#000000;letter-spacing:normal;word-spacing:normal;text-transform:none;writing-mode:lr-tb;direction:ltr;baseline-shift:baseline;text-anchor:start;white-space:normal;clip-rule:nonzero;display:inline;overflow:visible;visibility:visible;opacity:0.6;isolation:auto;mix-blend-mode:normal;color-interpolation:sRGB;color-interpolation-filters:linearRGB;solid-color:#000000;solid-opacity:1;fill:#000000;fill-opacity:1;fill-rule:nonzero;stroke:#000000;stroke-width:2;stroke-linecap:round;stroke-linejoin:round;stroke-miterlimit:4;stroke-dasharray:none;stroke-dashoffset:0;stroke-opacity:1;color-rendering:auto;image-rendering:auto;shape-rendering:auto;text-rendering:auto;enable-background:accumulate"
   sodipodi:nodetypes="cssccccccccccccccccsccscccssccscc" />
<path
   style="color:#000000;font-style:normal;font-variant:normal;font-weight:normal;font-stretch:normal;font-size:medium;line-height:normal;font-family:sans-serif;text-indent:0;text-align:start;text-decoration:none;text-decoration-line:none;text-decoration-style:solid;text-decoration-color:#000000;letter-spacing:normal;word-spacing:normal;text-transform:none;writing-mode:lr-tb;direction:ltr;baseline-shift:baseline;text-anchor:start;white-space:normal;clip-rule:nonzero;display:inline;overflow:visible;visibility:visible;opacity:1;isolation:auto;mix-blend-mode:normal;color-interpolation:sRGB;color-interpolation-filters:linearRGB;solid-color:#000000;solid-opacity:1;fill:#ffffff;fill-opacity:1;fill-rule:nonzero;stroke:none;stroke-width:0.99999994;stroke-linecap:round;stroke-linejoin:round;stroke-miterlimit:4;stroke-dasharray:none;stroke-dashoffset:0;stroke-opacity:1;color-rendering:auto;image-rendering:auto;shape-rendering:auto;text-rendering:auto;enable-background:accumulate"
   d="m 11.439246,2.0632948 c -0.640577,-4e-7 -1.281066,0.2417963 -1.7675791,0.7285149 l -3.0972281,3.098534 c -0.9730248,0.9734353 -0.9732301,2.5619361 10e-8,3.5351561 0.1211799,0.12119 0.2526947,0.2254273 0.3906249,0.316407 l 0.734375,-0.734375 c -0.14935,-0.0724 -0.292578,-0.163663 -0.417968,-0.289063 -0.59372,-0.59372 -0.59372,-1.527364 0,-2.1210941 L 10.378697,3.5007933 c 0.59372,-0.5937193 1.527375,-0.5937192 2.121095,-2e-7 0.59372,0.5937201 0.59372,1.5273735 0,2.1210935 l -1.312217,1.311572 c 0.13649,0.39092 -0.05709,1.066176 -0.06235,1.4764161 L 13.206841,6.3289314 C 14.180071,5.3557113 14.18007,3.7650527 13.20684,2.7918229 12.720227,2.3052082 12.079836,2.0633072 11.439259,2.0633082 Z M 9.0138919,6.2790157 8.2795168,7.0133907 c 0.1493302,0.0724 0.2925788,0.1656263 0.4179687,0.2910163 0.5937204,0.59372 0.5937204,1.527373 10e-8,2.121093 l -3.0762043,3.074254 c -0.5937199,0.59373 -1.527374,0.59372 -2.121094,0 -0.5937191,-0.59372 -0.593719,-1.527374 -10e-8,-2.121094 L 5.0588144,8.8200329 C 4.9223238,8.4291118 4.8484757,8.0212868 4.8537357,7.6110468 l -2.06058,2.0605801 c -0.97322,0.9732211 -0.9732298,2.5619261 0,3.5351561 0.9732299,0.97323 2.561927,0.97323 3.535157,0 l 3.0762172,-3.074237 c 0.9732201,-0.9732307 0.9732201,-2.5619378 0,-3.5351579 -0.12119,-0.12119 -0.252694,-0.227379 -0.390625,-0.3183589 z"
   id="rect76514"
   inkscape:connector-curvature="0"
   sodipodi:nodetypes="cssccccccccccccccccsccscccssccscc" />
<circle
   style="opacity:1;vector-effect:none;fill:#46a926;fill-opacity:1;stroke:none;stroke-width:3.49999976;stroke-linecap:butt;stroke-linejoin:round;stroke-miterlimit:4;stroke-dasharray:none;stroke-dashoffset:0;stroke-opacity:1"
   id="path2644"
   cy="12.5"
   cx="12.499998"
   r="3.5" />
<path
   inkscape:connector-curvature="0"
   id="path1063"
   overflow="visible"
   font-weight="400"
   style="color:#000000;font-weight:400;line-height:normal;font-family:sans-serif;text-indent:0;text-align:start;text-decoration:none;text-decoration-line:none;text-decoration-style:solid;text-decoration-color:#000000;text-transform:none;white-space:normal;overflow:visible;isolation:auto;mix-blend-mode:normal;fill:#ffffff;fill-opacity:1;marker:none"
   d="m 12,10 v 2 H 9.999999 v 1 H 12 v 2 h 1 v -2 h 2 v -1 h -2 v -2 z" />
</svg>

<svg xmlns="http://www.w3.org/2000/svg" viewBox="0 0 16 16">/&gt;<path d="M11.44 2.065a2.49 2.49 0 00-1.769.729L6.574 5.893a2.505 2.505 0 000 3.535c.121.12.253.225.39.316L7.7 9.01a1.486 1.486 0 01-.418-2.41l3.098-3.097a1.486 1.486 0 012.12 0 1.486 1.486 0 010 2.121l-1.312 1.312c.137.39-.057 1.066-.062 1.476l2.082-2.08a2.508 2.508 0 000-3.538 2.49 2.49 0 00-1.768-.729zM9.013 6.281l-.735.735a1.486 1.486 0 01.418 2.412l-3.076 3.074a1.486 1.486 0 01-2.121 0 1.486 1.486 0 010-2.121l1.559-1.559a3.532 3.532 0 01-.205-1.209l-2.061 2.06a2.505 2.505 0 000 3.536 2.505 2.505 0 003.535 0l3.076-3.074a2.505 2.505 0 00-.39-3.854z" style="line-height:normal;text-indent:0;text-align:start;text-decoration-line:none;text-decoration-style:solid;text-decoration-color:#000;text-transform:none;white-space:normal;isolation:auto;mix-blend-mode:normal;solid-color:#000;solid-opacity:1" color="#000" font-weight="400" font-family="sans-serif" overflow="visible" opacity=".6" stroke="#000" stroke-width="2" stroke-linecap="round" stroke-linejoin="round"/><path style="line-height:normal;text-indent:0;text-align:start;text-decoration-line:none;text-decoration-style:solid;text-decoration-color:#000;text-transform:none;white-space:normal;isolation:auto;mix-blend-mode:normal;solid-color:#000;solid-opacity:1" d="M11.44 2.063a2.49 2.49 0 00-1.768.729L6.574 5.89a2.505 2.505 0 000 3.535c.122.122.253.226.391.317l.734-.734a1.486 1.486 0 01-.418-2.41L10.38 3.5a1.486 1.486 0 012.12 0 1.486 1.486 0 010 2.12l-1.311 1.312c.136.391-.058 1.067-.063 1.477l2.082-2.081a2.508 2.508 0 000-3.537 2.49 2.49 0 00-1.768-.729zM9.013 6.28l-.734.734c.149.073.292.166.417.291a1.486 1.486 0 010 2.122L5.621 12.5a1.486 1.486 0 01-2.12 0 1.486 1.486 0 010-2.121L5.058 8.82a3.532 3.532 0 01-.205-1.209l-2.06 2.06a2.505 2.505 0 000 3.536 2.505 2.505 0 003.534 0l3.077-3.074a2.505 2.505 0 00-.391-3.854z" color="#000" font-weight="400" font-family="sans-serif" overflow="visible" fill="#fff"/><circle cy="12.5" cx="12.5" r="3.5" fill="#46a926"/><path overflow="visible" font-weight="400" style="line-height:normal;text-indent:0;text-align:start;text-decoration-line:none;text-decoration-style:solid;text-decoration-color:#000;text-transform:none;white-space:normal;isolation:auto;mix-blend-mode:normal;marker:none" d="M12 10v2h-2v1h2v2h1v-2h2v-1h-2v-2z" color="#000" font-family="sans-serif" fill="#fff"/></svg>
